img/arduino.svg

<svg xmlns="http://www.w3.org/2000/svg" width="256" height="174" preserveAspectRatio="xMidYMid" fill="#00979c" xmlns:v="https://vecta.io/nano"><path d="M14.044 130.4L.92 173.242h10.328l2.37-7.983H26.42l2.305 7.983h11.23L26.83 130.4H14.044zm2.156 26.24l3.9-13.325 3.855 13.325H16.2zm48.432-2.944l-.474-.47.946-.394c1.25-.574 2.345-1.343 3.255-2.28.92-.946 1.643-2.086 2.148-3.4.5-1.287.754-2.766.754-4.393 0-2.243-.405-4.183-1.2-5.768a10.17 10.17 0 0 0-3.461-3.924c-1.447-.97-3.207-1.67-5.232-2.082-1.946-.395-4.138-.597-6.513-.597h-13.4v42.843H51.73V156.5h.305c1.124 0 2.06.247 2.864.757.797.505 1.408 1.25 1.87 2.282l6.2 13.7h11.955L67.4 157.96c-.914-1.856-1.817-3.25-2.76-4.263h0zm-4.47-8.22a3.95 3.95 0 0 1-1.26 1.418c-.58.408-1.302.72-2.146.93-.9.223-1.908.335-3.024.335H51.73v-9.02h2.258c2.352 0 4.1.37 5.195 1.098.954.635 1.418 1.705 1.418 3.273 0 .758-.144 1.4-.44 1.964h0zm44.878-9.99c-1.73-1.74-3.912-3.04-6.485-3.868-2.508-.8-5.46-1.22-8.773-1.22h-13.6v42.843h11.83c3.817 0 7.156-.52 9.923-1.545 2.8-1.04 5.157-2.547 6.974-4.48s3.166-4.288 4.016-7.007c.834-2.662 1.256-5.656 1.256-8.9 0-3.535-.423-6.636-1.26-9.217-.854-2.644-2.163-4.866-3.892-6.606h0zm-8.4 26.037c-1.784 1.982-4.372 2.945-7.912 2.945h-2.26v-25.297h2.803c1.98 0 3.644.28 4.94.833 1.258.535 2.23 1.3 2.975 2.3.76 1.044 1.3 2.354 1.637 3.9.343 1.626.518 3.5.518 5.6 0 4.458-.9 7.728-2.702 9.72h0zm38.302-3.87c0 1.477-.136 2.736-.407 3.742-.252.94-.623 1.706-1.105 2.28a3.91 3.91 0 0 1-1.726 1.19c-.76.272-1.734.4-2.894.4-1.227 0-2.24-.157-3.008-.468-.74-.3-1.333-.73-1.817-1.3s-.834-1.32-1.035-2.185c-.224-.956-.337-2.08-.337-3.347V130.4H112.34v28.028c0 2.316.287 4.442.85 6.318.587 1.95 1.555 3.634 2.878 5.005s3.055 2.43 5.148 3.147c2.034.7 4.492 1.056 7.305 1.056 2.515 0 4.823-.355 6.857-1.056 2.08-.713 3.873-1.794 5.33-3.214s2.6-3.212 3.362-5.32c.76-2.07 1.146-4.494 1.146-7.205V130.4h-10.274v27.255m15.528-18.637h9.22v25.544h-9.22v8.68h28.843v-8.68h-9.22v-25.544h9.22v-8.62H150.47v8.62m57.435 15.792l-11.485-24.4H184.8v42.843h9.57v-24.876l11.547 24.876h11.57V130.4h-9.57v24.412m42.82-19.344c-3-3.815-7.497-5.75-13.364-5.75-2.5 0-4.904.445-7.116 1.322-2.243.9-4.225 2.273-5.892 4.117-1.652 1.828-2.964 4.18-3.897 6.986-.923 2.77-1.4 6.094-1.4 9.878 0 7 1.487 12.428 4.42 16.166 3 3.826 7.497 5.765 13.364 5.765 2.5 0 4.907-.445 7.12-1.322 2.244-.9 4.225-2.275 5.9-4.116 1.65-1.827 2.962-4.177 3.898-6.986.92-2.77 1.4-6.093 1.4-9.88 0-7-1.487-12.455-4.42-16.182h0zm-6.762 22.26c-.294 1.58-.753 2.914-1.364 3.963-.58 1-1.298 1.73-2.193 2.236s-2.003.758-3.3.758c-2.568 0-4.358-.956-5.472-2.92-1.224-2.16-1.845-5.56-1.845-10.115 0-2.138.154-4.06.46-5.706.294-1.578.756-2.9 1.376-3.958.6-1.003 1.3-1.737 2.2-2.244.88-.5 1.982-.755 3.28-.755 2.588 0 4.383.954 5.486 2.916 1.215 2.16 1.83 5.565 1.83 10.12 0 2.144-.154 4.064-.46 5.707h0zM240.315 5.74h1.823v4.793h1.293V5.74h1.838v-1.2h-4.954v1.2"/><path d="M249.768 4.55l-1.247 4.078-1.3-4.078h-1.687v5.983h1.216V6.7l1.206 3.822h1.1L250.22 6.8v3.723h1.2V4.55h-1.662m-59.483 115.777c-16.288 0-30.214-5.492-42.47-16.725-7.57-6.937-13.813-15.436-19.556-24.273-5.742 8.837-11.985 17.336-19.555 24.273-13.17 12.07-28.267 17.5-46.15 16.634-34.1-.148-61.798-27.06-61.798-60.118C.747 26.97 28.596 0 62.827 0c18.732 0 34.503 6.2 48.2 18.95 6.584 6.125 12.142 13.23 17.212 20.664 5.07-7.434 10.63-14.54 17.212-20.664C159.168 6.2 174.94 0 193.67 0c34.232 0 62.08 26.97 62.08 60.118 0 33.058-27.696 59.97-61.798 60.118a74.82 74.82 0 0 1-3.678.091h0zm-49.555-61c6.794 11.023 13.388 21.283 21.42 28.643 9.066 8.3 18.622 11.727 30.975 11.074l.556-.015c22.53 0 40.862-17.45 40.862-38.9s-18.33-38.9-40.862-38.9c-13.3 0-24.028 4.216-33.758 13.267-7.267 6.76-13.267 15.423-19.193 24.83h0zm-77.893-38.1c-22.53 0-40.862 17.45-40.862 38.9s18.33 38.9 40.862 38.9l.557.015c12.354.653 21.908-2.765 30.974-11.074 8.032-7.36 14.627-17.62 21.42-28.643-5.926-9.408-11.926-18.07-19.192-24.83-9.73-9.05-20.458-13.267-33.76-13.267h0z"/><path d="M196.477 52.407V40.9H184.5v11.506h-11.505v11.918H184.5v11.6h11.976v-11.6h11.506V52.407h-11.506M45.6 52.263h37.817v12.292H45.6V52.263z"/></svg>

<svg width="256" height="174" viewBox="0 0 256 174" xmlns="http://www.w3.org/2000/svg" xmlns:xlink="http://www.w3.org/1999/xlink" preserveAspectRatio="xMidYMid"><g fill="#00979c"><path d="M14.044 130.399.919 173.242H11.247L13.616 165.259H26.419L28.724 173.242H39.955L26.831 130.399H14.044v0zM16.21 156.641 20.109 143.316 23.964 156.641H16.21v0z"/><path d="M64.632 153.696C64.477 153.53 64.319 153.373 64.158 153.226 64.481 153.104 64.796 152.974 65.104 152.832 66.354 152.258 67.449 151.489 68.359 150.552 69.279 149.606 70.002 148.466 70.507 147.163 71.007 145.876 71.261 144.397 71.261 142.77 71.261 140.527 70.856 138.587 70.06 137.002 69.255 135.399 68.09 134.079 66.599 133.078 65.152 132.108 63.392 131.407 61.367 130.996 59.421 130.601 57.229 130.399 54.854 130.399H41.456V173.242H51.731V156.502H52.036C53.16 156.502 54.097 156.749 54.9 157.259 55.697 157.764 56.308 158.509 56.771 159.541L62.981 173.242H74.936L67.391 157.959C66.477 156.103 65.574 154.71 64.632 153.696v0zM60.163 145.477C59.866 146.043 59.454 146.507 58.903 146.895 58.322 147.303 57.601 147.616 56.757 147.826 55.866 148.049 54.849 148.161 53.733 148.161H51.731V139.142H53.989C56.341 139.142 58.089 139.511 59.184 140.24 60.138 140.875 60.602 141.945 60.602 143.513 60.602 144.271 60.458 144.914 60.163 145.477v0z"/><path d="M105.04 135.487C103.31 133.748 101.128 132.446 98.555 131.619 96.047 130.81 93.095 130.399 89.782 130.399H76.193V173.242H88.022C91.839 173.242 95.178 172.722 97.945 171.697 100.755 170.658 103.102 169.15 104.919 167.216 106.733 165.286 108.085 162.928 108.935 160.209 109.769 157.547 110.191 154.553 110.191 151.31 110.191 147.775 109.768 144.674 108.932 142.093 108.078 139.449 106.769 137.227 105.04 135.487v0zM96.639 161.524C94.855 163.506 92.267 164.469 88.727 164.469H86.467V139.172H89.27C91.251 139.172 92.914 139.452 94.211 140.005 95.469 140.54 96.442 141.296 97.186 142.314 97.946 143.358 98.497 144.668 98.823 146.205 99.166 147.831 99.341 149.715 99.341 151.805 99.341 156.263 98.432 159.533 96.639 161.524v0z"/><path d="M134.942 157.654C134.942 159.131 134.806 160.39 134.535 161.396 134.283 162.335 133.912 163.102 133.43 163.675 132.968 164.226 132.403 164.615 131.704 164.864 130.943 165.136 129.97 165.273 128.81 165.273 127.583 165.273 126.571 165.116 125.802 164.805 125.063 164.505 124.469 164.076 123.985 163.495 123.499 162.91 123.151 162.176 122.95 161.31 122.726 160.354 122.613 159.229 122.613 157.963V130.399H112.339V158.427C112.339 160.743 112.626 162.869 113.19 164.745 113.777 166.694 114.745 168.379 116.068 169.75 117.391 171.12 119.123 172.18 121.216 172.897 123.25 173.598 125.708 173.953 128.521 173.953 131.036 173.953 133.344 173.598 135.378 172.897 137.458 172.184 139.251 171.103 140.708 169.683 142.166 168.261 143.297 166.471 144.07 164.363 144.83 162.293 145.216 159.869 145.216 157.158V130.399H134.942V157.654"/><path d="M150.47 139.018H159.69V164.562H150.47V173.242H179.313V164.562H170.093V139.018H179.313v-8.619H150.47v8.619"/><path d="M207.905 154.811 196.419 130.399H184.79V173.242H194.359V148.366L205.906 173.242H217.476V130.399H207.905V154.811"/><path d="M250.738 135.468C247.738 131.653 243.241 129.719 237.374 129.719 234.864 129.719 232.47 130.164 230.258 131.041 228.015 131.93 226.033 133.314 224.366 135.158 222.714 136.986 221.402 139.337 220.469 142.144 219.546 144.915 219.078 148.238 219.078 152.022 219.078 159.012 220.565 164.45 223.497 168.188 226.497 172.014 230.994 173.953 236.861 173.953 239.372 173.953 241.768 173.508 243.98 172.631 246.224 171.741 248.205 170.356 249.87 168.515 251.52 166.688 252.832 164.338 253.768 161.529 254.689 158.759 255.157 155.436 255.157 151.65 255.157 144.64 253.67 139.195 250.738 135.468v0zM243.976 157.729C243.682 159.31 243.223 160.643 242.612 161.692 242.032 162.691 241.314 163.423 240.419 163.928 239.527 164.431 238.416 164.686 237.118 164.686 234.55 164.686 232.76 163.73 231.646 161.765 230.422 159.606 229.801 156.204 229.801 151.65 229.801 149.512 229.955 147.591 230.261 145.944 230.555 144.366 231.017 143.035 231.637 141.986 232.227 140.983 232.947 140.249 233.838 139.742 234.717 139.241 235.82 138.987 237.118 138.987 239.706 138.987 241.501 139.941 242.604 141.903 243.819 144.063 244.435 147.468 244.435 152.022 244.435 154.166 244.281 156.086 243.976 157.729v0z"/><path d="M240.315 5.74H242.138V10.533H243.431V5.74H245.269V4.55H240.315V5.74"/><path d="M249.768 4.55 248.521 8.628 247.231 4.55H245.544v5.983H246.76V6.711L247.966 10.533H249.076L250.22 6.81v3.723H251.43V4.55H249.768"/><path d="M190.275 120.327C173.987 120.327 160.061 114.835 147.805 103.602 140.234 96.665 133.992 88.166 128.249 79.329 122.507 88.166 116.264 96.665 108.694 103.602 95.525 115.671 80.427 121.113 62.545 120.236 28.444 120.088.747 93.176.747 60.118.747 26.969 28.596.0 62.827.0 81.559.0 97.33 6.199 111.037 18.95 117.621 25.075 123.179 32.18 128.249 39.614 133.319 32.18 138.878 25.075 145.461 18.95 159.168 6.199 174.939.0 193.671.0 227.903.0 255.751 26.969 255.751 60.118 255.751 93.176 228.055 120.088 193.953 120.236 192.714 120.297 191.487 120.327 190.275 120.327v0zM140.72 59.316C147.514 70.339 154.108 80.599 162.14 87.959 171.206 96.268 180.762 99.686 193.115 99.033L193.671 99.018C216.202 99.018 234.533 81.568 234.533 60.118 234.533 38.669 216.202 21.218 193.671 21.218 180.37 21.218 169.643 25.434 159.913 34.485 152.646 41.246 146.646 49.908 140.72 59.316v0zM62.827 21.218C40.296 21.218 21.965 38.669 21.965 60.118 21.965 81.568 40.296 99.018 62.827 99.018L63.384 99.033C75.738 99.686 85.292 96.268 94.358 87.959 102.39 80.599 108.985 70.339 115.778 59.316 109.852 49.908 103.852 41.246 96.586 34.485 86.855 25.434 76.128 21.218 62.827 21.218v0z"/><path d="M196.477 52.407V40.901H184.501V52.407H172.996V64.325H184.501V75.916H196.477V64.325h11.506V52.407H196.477"/><path d="M45.599 52.263H83.416V64.555H45.599V52.263z"/></g></svg>
